Newaita-dark/apps/48/retroarch.svg

<svg height="48pt" viewBox="0 0 48 48" width="48pt" xmlns="http://www.w3.org/2000/svg" xmlns:xlink="http://www.w3.org/1999/xlink"><linearGradient id="a" gradientUnits="userSpaceOnUse" x1="23.81478" x2="23.81478" y1="42.0509045" y2="44.03547050005"><stop offset="0" stop-opacity=".27451"/><stop offset="1" stop-opacity="0"/></linearGradient><linearGradient id="b"><stop offset="0" stop-opacity=".313726"/><stop offset=".222222" stop-opacity=".27451"/><stop offset="1" stop-opacity="0"/></linearGradient><radialGradient id="c" cx="450.908936" cy="189.579361" gradientTransform="matrix(.00000026 -.117199 -.210958 -.00000015 79.684395 95.392999)" gradientUnits="userSpaceOnUse" r="21.166656" xlink:href="#b"/><radialGradient id="d" cx="450.908936" cy="189.579361" gradientTransform="matrix(-.00000026 .117199 .210958 .00000015 -31.80678 -11.291218)" gradientUnits="userSpaceOnUse" r="21.166656" xlink:href="#b"/><radialGradient id="e" cx="450.908936" cy="189.579361" gradientTransform="matrix(-.00000026 -.117199 .210958 -.00000015 -31.80678 95.392999)" gradientUnits="userSpaceOnUse" r="21.166656" xlink:href="#b"/><radialGradient id="f" cx="450.908936" cy="189.579361" gradientTransform="matrix(.00000026 .117199 -.210958 .00000015 79.684393 -11.291219)" gradientUnits="userSpaceOnUse" r="21.166656" xlink:href="#b"/><linearGradient id="g"><stop offset="0" stop-color="#e0e0e0"/><stop offset="1" stop-color="#eee"/></linearGradient><linearGradient id="h" gradientUnits="userSpaceOnUse" x1="23.814786" x2="23.814786" xlink:href="#g" y1="42.0509015" y2="4.34415649995"/><linearGradient id="i" gradientUnits="userSpaceOnUse" x1="23.814786" x2="23.814786" y1="32.1280729999" y2="15.25926725"><stop offset="0" stop-color="#424242"/><stop offset="1" stop-color="#616161"/></linearGradient><linearGradient id="j" gradientUnits="userSpaceOnUse" x1="19.34951475" x2="19.34951475" xlink:href="#g" y1="24.189812" y2="20.71682234375"/><linearGradient id="k" gradientUnits="userSpaceOnUse" x1="28.77619575" x2="28.77619575" xlink:href="#g" y1="24.189812" y2="20.71682234375"/><path d="m7.691406 42.050781h32.496094v1.984375h-32.496094zm0 0" fill="url(#a)"/><path d="m40.1875 42.050781h3.96875v-1.984375h-3.96875zm0 0" fill="url(#c)"/><path d="m7.691406 42.050781h-3.96875v1.984375h3.96875zm0 0" fill="url(#d)"/><path d="m7.691406 42.050781h-3.96875v-1.984375h3.96875zm0 0" fill="url(#e)"/><path d="m40.1875 42.050781h3.96875v1.984375h-3.96875zm0 0" fill="url(#f)"/><path d="m5.457031 4.34375h36.714844c.820313 0 1.488281.667969 1.488281 1.488281v34.730469c0 .820312-.667968 1.488281-1.488281 1.488281h-36.714844c-.820312 0-1.488281-.667969-1.488281-1.488281v-34.730469c0-.820312.667969-1.488281 1.488281-1.488281zm0 0" fill="url(#h)"/><path d="m3.96875 40.066406v.496094c0 .824219.664062 1.488281 1.488281 1.488281h36.714844c.824219 0 1.488281-.664062 1.488281-1.488281v-.496094c0 .824219-.664062 1.488282-1.488281 1.488282h-36.714844c-.824219 0-1.488281-.664063-1.488281-1.488282zm0 0" fill-opacity=".235294"/><path d="m5.457031 4.34375c-.824219 0-1.488281.664062-1.488281 1.488281v.496094c0-.824219.664062-1.488281 1.488281-1.488281h36.714844c.824219 0 1.488281.664062 1.488281 1.488281v-.496094c0-.824219-.664062-1.488281-1.488281-1.488281zm0 0" fill="#fff" fill-opacity=".784314"/><path d="m5.457031 4.203125c-.898437 0-1.628906.730469-1.628906 1.628906v34.730469c0 .898438.730469 1.628906 1.628906 1.628906h36.714844c.898437 0 1.628906-.730468 1.628906-1.628906v-34.730469c0-.898437-.730469-1.628906-1.628906-1.628906zm0 .28125h36.714844c.75 0 1.347656.597656 1.347656 1.347656v34.730469c0 .75-.597656 1.347656-1.347656 1.347656h-36.714844c-.75 0-1.347656-.597656-1.347656-1.347656v-34.730469c0-.75.597656-1.347656 1.347656-1.347656zm0 0" fill="#212121"/><path d="m17.6875 15.375 2.625 3.503906h-5.253906l-.542969 2.625h-2.957031l.875-3.5h-1.753906l-1.75 7.003906h4.925781l-.546875 2.625h3.5l-2.625 3.503907h3.503906l2.625-3.503907h7.003906l2.628906 3.503907h3.5l-2.625-3.503907h3.5l-.542968-2.625h4.921875l-1.75-7.003906h-1.753907l.878907 3.5h-2.957031l-.546876-2.625h-5.253906l2.628906-3.503906h-1.753906l-2.625 3.503906h-3.503906l-2.625-3.503906zm0 0" fill="url(#i)"/><path d="m17.6875 15.375.445312.597656h1.304688l2.625 3.503906h3.503906l2.625-3.503906h1.304688l.449218-.597656h-1.753906l-2.625 3.503906h-3.503906l-2.625-3.503906zm-7.007812 2.628906-1.75 7.003906h.152343l1.597657-6.40625h1.601562l.152344-.597656zm24.515624 0 .152344.597656h1.601563l1.601562 6.40625h.148438l-1.75-7.003906zm-20.136718.875-.542969 2.625h-2.808594l-.148437.597656h2.957031l.542969-2.625h5.253906l-.449219-.597656zm12.707031 0-.449219.597656h5.253906l.546876 2.625h2.957031l-.152344-.597656h-2.804687l-.546876-2.625zm-14.035156 6.726563-.421875 2.027343h.125l.421875-2.027343zm20.046875 0 .417968 2.027343h.125l-.421874-2.027343zm-17.414063 2.625-2.179687 2.90625h.449218l2.175782-2.90625zm14.457031 0 2.175782 2.90625h.449218l-2.175781-2.90625zm0 0" fill="#fff" fill-opacity=".313726"/><path d="m17.6875 16.121094 2.160156 2.882812h.464844l-2.160156-2.882812zm11.789062 0-2.160156 2.882812h.464844l2.164062-2.882812zm-17.199218 2.625-.71875 2.882812h.152344l.722656-2.882812zm22.917968 0 .722657 2.882812h.15625l-.722657-2.882812zm-26.109374 6.386718-.15625.617188h4.796874l.128907-.617188zm24.691406 0 .128906.617188h4.792969l-.15625-.617188zm-20.339844 2.625-.128906.621094h3.035156l.464844-.621094zm6.875 0-2.625 3.503907h-3.039062l-.464844.617187h3.503906l2.625-3.5h7.003906l2.628906 3.5h3.5l-.464843-.617187h-3.035157l-2.628906-3.503907zm10.507812 0 .464844.621094h3.035156l-.128906-.621094zm0 0" fill-opacity=".235294"/><path d="m188.648652-51.01566 27.997326 37.371431h-56.036315l-5.791114 27.997327h-31.538655l9.332442-37.329769h-18.706547l-18.664884 74.7012h52.53665l-5.832777 27.997326h37.329769l-27.997327 37.371432h37.371432l27.997326-37.371432h74.7012l28.038989 37.371432h37.329768l-27.997326-37.371432h37.329768l-5.791113-27.997326h52.494987l-18.664884-74.7012h-18.706547l9.374104 37.329769h-31.538654l-5.832777-27.997327h-56.036315l28.038989-37.371431h-18.706547l-27.997327 37.371431h-37.371431l-27.997326-37.371431zm0 0" fill="none" stroke="#212121" stroke-width="3" transform="matrix(.093759 0 0 .093759 0 20.158175)"/><path d="m17.363281 20.71875h3.476563v3.472656h-3.476563zm0 0" fill="url(#j)"/><path d="m17.363281 20.71875v.742188h3.476563v-.742188zm0 0" fill="#fff"/><path d="m17.363281 24.191406v.742188h3.476563v-.742188zm0 0" fill-opacity=".235294"/><path d="m201.065646 5.978898h37.079792v37.038129h-37.079792zm0 0" fill="none" stroke="#212121" stroke-linecap="round" stroke-linejoin="round" stroke-width="3" transform="matrix(.093759 0 0 .093759 -1.488423 20.158175)"/><path d="m26.792969 20.71875h3.472656v3.472656h-3.472656zm0 0" fill="url(#k)"/><path d="m26.792969 20.71875v.742188h3.472656v-.742188zm0 0" fill="#fff"/><path d="m26.792969 24.191406v.742188h3.472656v-.742188zm0 0" fill-opacity=".235294"/><path d="m201.097713 5.978898h37.03813v37.038129h-37.03813zm0 0" fill="none" stroke="#212121" stroke-linecap="round" stroke-linejoin="round" stroke-width="3" transform="matrix(.093759 0 0 .093759 7.938258 20.158175)"/></svg>

<?xml version="1.0" encoding="UTF-8"?>
<svg xmlns="http://www.w3.org/2000/svg" xmlns:xlink="http://www.w3.org/1999/xlink" width="48pt" height="48pt" viewBox="0 0 48 48" version="1.1">
<defs>
<linearGradient id="linear0" gradientUnits="userSpaceOnUse" x1="254" y1="233.5" x2="254" y2="254.666672" gradientTransform="matrix(0.093759,0,0,0.093759,-0.00000572259,20.158178)">
<stop offset="0" style="stop-color:rgb(0%,0%,0%);stop-opacity:0.27451;"/>
<stop offset="1" style="stop-color:rgb(0%,0%,0%);stop-opacity:0;"/>
</linearGradient>
<radialGradient id="radial0" gradientUnits="userSpaceOnUse" cx="450.908936" cy="189.579361" fx="450.908936" fy="189.579361" r="21.166656" gradientTransform="matrix(0.000000261256,-0.117199,-0.210958,-0.000000152308,79.684395,95.392999)">
<stop offset="0" style="stop-color:rgb(0%,0%,0%);stop-opacity:0.313726;"/>
<stop offset="0.222222" style="stop-color:rgb(0%,0%,0%);stop-opacity:0.27451;"/>
<stop offset="1" style="stop-color:rgb(0%,0%,0%);stop-opacity:0;"/>
</radialGradient>
<radialGradient id="radial1" gradientUnits="userSpaceOnUse" cx="450.908936" cy="189.579361" fx="450.908936" fy="189.579361" r="21.166656" gradientTransform="matrix(-0.000000261256,0.117199,0.210958,0.000000152308,-31.80678,-11.291218)">
<stop offset="0" style="stop-color:rgb(0%,0%,0%);stop-opacity:0.313726;"/>
<stop offset="0.222222" style="stop-color:rgb(0%,0%,0%);stop-opacity:0.27451;"/>
<stop offset="1" style="stop-color:rgb(0%,0%,0%);stop-opacity:0;"/>
</radialGradient>
<radialGradient id="radial2" gradientUnits="userSpaceOnUse" cx="450.908936" cy="189.579361" fx="450.908936" fy="189.579361" r="21.166656" gradientTransform="matrix(-0.000000261256,-0.117199,0.210958,-0.000000152308,-31.80678,95.392999)">
<stop offset="0" style="stop-color:rgb(0%,0%,0%);stop-opacity:0.313726;"/>
<stop offset="0.222222" style="stop-color:rgb(0%,0%,0%);stop-opacity:0.27451;"/>
<stop offset="1" style="stop-color:rgb(0%,0%,0%);stop-opacity:0;"/>
</radialGradient>
<radialGradient id="radial3" gradientUnits="userSpaceOnUse" cx="450.908936" cy="189.579361" fx="450.908936" fy="189.579361" r="21.166656" gradientTransform="matrix(0.000000261256,0.117199,-0.210958,0.000000152308,79.684393,-11.291219)">
<stop offset="0" style="stop-color:rgb(0%,0%,0%);stop-opacity:0.313726;"/>
<stop offset="0.222222" style="stop-color:rgb(0%,0%,0%);stop-opacity:0.27451;"/>
<stop offset="1" style="stop-color:rgb(0%,0%,0%);stop-opacity:0;"/>
</radialGradient>
<linearGradient id="linear1" gradientUnits="userSpaceOnUse" x1="254" y1="233.5" x2="254" y2="-168.666672" gradientTransform="matrix(0.093759,0,0,0.093759,0,20.158175)">
<stop offset="0" style="stop-color:rgb(87.843138%,87.843138%,87.843138%);stop-opacity:1;"/>
<stop offset="1" style="stop-color:rgb(93.333334%,93.333334%,93.333334%);stop-opacity:1;"/>
</linearGradient>
<linearGradient id="linear2" gradientUnits="userSpaceOnUse" x1="254" y1="127.666656" x2="254" y2="-52.25" gradientTransform="matrix(0.093759,0,0,0.093759,0,20.158175)">
<stop offset="0" style="stop-color:rgb(25.882354%,25.882354%,25.882354%);stop-opacity:1;"/>
<stop offset="1" style="stop-color:rgb(38.039216%,38.039216%,38.039216%);stop-opacity:1;"/>
</linearGradient>
<linearGradient id="linear3" gradientUnits="userSpaceOnUse" x1="222.25" y1="43" x2="222.25" y2="5.958333" gradientTransform="matrix(0.093759,0,0,0.093759,-1.488423,20.158175)">
<stop offset="0" style="stop-color:rgb(87.843138%,87.843138%,87.843138%);stop-opacity:1;"/>
<stop offset="1" style="stop-color:rgb(93.333334%,93.333334%,93.333334%);stop-opacity:1;"/>
</linearGradient>
<linearGradient id="linear4" gradientUnits="userSpaceOnUse" x1="222.25" y1="43" x2="222.25" y2="5.958333" gradientTransform="matrix(0.093759,0,0,0.093759,7.938258,20.158175)">
<stop offset="0" style="stop-color:rgb(87.843138%,87.843138%,87.843138%);stop-opacity:1;"/>
<stop offset="1" style="stop-color:rgb(93.333334%,93.333334%,93.333334%);stop-opacity:1;"/>
</linearGradient>
</defs>
<g id="surface1">
<path style=" stroke:none;fill-rule:nonzero;fill:url(#linear0);" d="M 7.691406 42.050781 L 40.1875 42.050781 L 40.1875 44.035156 L 7.691406 44.035156 Z M 7.691406 42.050781 "/>
<path style=" stroke:none;fill-rule:nonzero;fill:url(#radial0);" d="M 40.1875 42.050781 L 44.15625 42.050781 L 44.15625 40.066406 L 40.1875 40.066406 Z M 40.1875 42.050781 "/>
<path style=" stroke:none;fill-rule:nonzero;fill:url(#radial1);" d="M 7.691406 42.050781 L 3.722656 42.050781 L 3.722656 44.035156 L 7.691406 44.035156 Z M 7.691406 42.050781 "/>
<path style=" stroke:none;fill-rule:nonzero;fill:url(#radial2);" d="M 7.691406 42.050781 L 3.722656 42.050781 L 3.722656 40.066406 L 7.691406 40.066406 Z M 7.691406 42.050781 "/>
<path style=" stroke:none;fill-rule:nonzero;fill:url(#radial3);" d="M 40.1875 42.050781 L 44.15625 42.050781 L 44.15625 44.035156 L 40.1875 44.035156 Z M 40.1875 42.050781 "/>
<path style=" stroke:none;fill-rule:nonzero;fill:url(#linear1);" d="M 5.457031 4.34375 L 42.171875 4.34375 C 42.992188 4.34375 43.660156 5.011719 43.660156 5.832031 L 43.660156 40.5625 C 43.660156 41.382812 42.992188 42.050781 42.171875 42.050781 L 5.457031 42.050781 C 4.636719 42.050781 3.96875 41.382812 3.96875 40.5625 L 3.96875 5.832031 C 3.96875 5.011719 4.636719 4.34375 5.457031 4.34375 Z M 5.457031 4.34375 "/>
<path style=" stroke:none;fill-rule:nonzero;fill:rgb(0%,0%,0%);fill-opacity:0.235294;" d="M 3.96875 40.066406 L 3.96875 40.5625 C 3.96875 41.386719 4.632812 42.050781 5.457031 42.050781 L 42.171875 42.050781 C 42.996094 42.050781 43.660156 41.386719 43.660156 40.5625 L 43.660156 40.066406 C 43.660156 40.890625 42.996094 41.554688 42.171875 41.554688 L 5.457031 41.554688 C 4.632812 41.554688 3.96875 40.890625 3.96875 40.066406 Z M 3.96875 40.066406 "/>
<path style=" stroke:none;fill-rule:nonzero;fill:rgb(100%,100%,100%);fill-opacity:0.784314;" d="M 5.457031 4.34375 C 4.632812 4.34375 3.96875 5.007812 3.96875 5.832031 L 3.96875 6.328125 C 3.96875 5.503906 4.632812 4.839844 5.457031 4.839844 L 42.171875 4.839844 C 42.996094 4.839844 43.660156 5.503906 43.660156 6.328125 L 43.660156 5.832031 C 43.660156 5.007812 42.996094 4.34375 42.171875 4.34375 Z M 5.457031 4.34375 "/>
<path style=" stroke:none;fill-rule:nonzero;fill:rgb(12.941177%,12.941177%,12.941177%);fill-opacity:1;" d="M 5.457031 4.203125 C 4.558594 4.203125 3.828125 4.933594 3.828125 5.832031 L 3.828125 40.5625 C 3.828125 41.460938 4.558594 42.191406 5.457031 42.191406 L 42.171875 42.191406 C 43.070312 42.191406 43.800781 41.460938 43.800781 40.5625 L 43.800781 5.832031 C 43.800781 4.933594 43.070312 4.203125 42.171875 4.203125 Z M 5.457031 4.484375 L 42.171875 4.484375 C 42.921875 4.484375 43.519531 5.082031 43.519531 5.832031 L 43.519531 40.5625 C 43.519531 41.3125 42.921875 41.910156 42.171875 41.910156 L 5.457031 41.910156 C 4.707031 41.910156 4.109375 41.3125 4.109375 40.5625 L 4.109375 5.832031 C 4.109375 5.082031 4.707031 4.484375 5.457031 4.484375 Z M 5.457031 4.484375 "/>
<path style=" stroke:none;fill-rule:nonzero;fill:url(#linear2);" d="M 17.6875 15.375 L 20.3125 18.878906 L 15.058594 18.878906 L 14.515625 21.503906 L 11.558594 21.503906 L 12.433594 18.003906 L 10.679688 18.003906 L 8.929688 25.007812 L 13.855469 25.007812 L 13.308594 27.632812 L 16.808594 27.632812 L 14.183594 31.136719 L 17.6875 31.136719 L 20.3125 27.632812 L 27.316406 27.632812 L 29.945312 31.136719 L 33.445312 31.136719 L 30.820312 27.632812 L 34.320312 27.632812 L 33.777344 25.007812 L 38.699219 25.007812 L 36.949219 18.003906 L 35.195312 18.003906 L 36.074219 21.503906 L 33.117188 21.503906 L 32.570312 18.878906 L 27.316406 18.878906 L 29.945312 15.375 L 28.191406 15.375 L 25.566406 18.878906 L 22.0625 18.878906 L 19.4375 15.375 Z M 17.6875 15.375 "/>
<path style=" stroke:none;fill-rule:nonzero;fill:rgb(100%,100%,100%);fill-opacity:0.313726;" d="M 17.6875 15.375 L 18.132812 15.972656 L 19.4375 15.972656 L 22.0625 19.476562 L 25.566406 19.476562 L 28.191406 15.972656 L 29.496094 15.972656 L 29.945312 15.375 L 28.191406 15.375 L 25.566406 18.878906 L 22.0625 18.878906 L 19.4375 15.375 Z M 10.679688 18.003906 L 8.929688 25.007812 L 9.082031 25.007812 L 10.679688 18.601562 L 12.28125 18.601562 L 12.433594 18.003906 Z M 35.195312 18.003906 L 35.347656 18.601562 L 36.949219 18.601562 L 38.550781 25.007812 L 38.699219 25.007812 L 36.949219 18.003906 Z M 15.058594 18.878906 L 14.515625 21.503906 L 11.707031 21.503906 L 11.558594 22.101562 L 14.515625 22.101562 L 15.058594 19.476562 L 20.3125 19.476562 L 19.863281 18.878906 Z M 27.765625 18.878906 L 27.316406 19.476562 L 32.570312 19.476562 L 33.117188 22.101562 L 36.074219 22.101562 L 35.921875 21.503906 L 33.117188 21.503906 L 32.570312 18.878906 Z M 13.730469 25.605469 L 13.308594 27.632812 L 13.433594 27.632812 L 13.855469 25.605469 Z M 33.777344 25.605469 L 34.195312 27.632812 L 34.320312 27.632812 L 33.898438 25.605469 Z M 16.363281 28.230469 L 14.183594 31.136719 L 14.632812 31.136719 L 16.808594 28.230469 Z M 30.820312 28.230469 L 32.996094 31.136719 L 33.445312 31.136719 L 31.269531 28.230469 Z M 30.820312 28.230469 "/>
<path style=" stroke:none;fill-rule:nonzero;fill:rgb(0%,0%,0%);fill-opacity:0.235294;" d="M 17.6875 16.121094 L 19.847656 19.003906 L 20.3125 19.003906 L 18.152344 16.121094 Z M 29.476562 16.121094 L 27.316406 19.003906 L 27.78125 19.003906 L 29.945312 16.121094 Z M 12.277344 18.746094 L 11.558594 21.628906 L 11.710938 21.628906 L 12.433594 18.746094 Z M 35.195312 18.746094 L 35.917969 21.628906 L 36.074219 21.628906 L 35.351562 18.746094 Z M 9.085938 25.132812 L 8.929688 25.75 L 13.726562 25.75 L 13.855469 25.132812 Z M 33.777344 25.132812 L 33.90625 25.75 L 38.699219 25.75 L 38.542969 25.132812 Z M 13.4375 27.757812 L 13.308594 28.378906 L 16.34375 28.378906 L 16.808594 27.757812 Z M 20.3125 27.757812 L 17.6875 31.261719 L 14.648438 31.261719 L 14.183594 31.878906 L 17.6875 31.878906 L 20.3125 28.378906 L 27.316406 28.378906 L 29.945312 31.878906 L 33.445312 31.878906 L 32.980469 31.261719 L 29.945312 31.261719 L 27.316406 27.757812 Z M 30.820312 27.757812 L 31.285156 28.378906 L 34.320312 28.378906 L 34.191406 27.757812 Z M 30.820312 27.757812 "/>
<path style="fill:none;stroke-width:3;stroke-linecap:butt;stroke-linejoin:miter;stroke:rgb(12.941177%,12.941177%,12.941177%);stroke-opacity:1;stroke-miterlimit:4;" d="M 188.648652 -51.01566 L 216.645978 -13.644229 L 160.609663 -13.644229 L 154.818549 14.353098 L 123.279894 14.353098 L 132.612336 -22.976671 L 113.905789 -22.976671 L 95.240905 51.724529 L 147.777555 51.724529 L 141.944778 79.721855 L 179.274547 79.721855 L 151.27722 117.093287 L 188.648652 117.093287 L 216.645978 79.721855 L 291.347178 79.721855 L 319.386167 117.093287 L 356.715935 117.093287 L 328.718609 79.721855 L 366.048377 79.721855 L 360.257264 51.724529 L 412.752251 51.724529 L 394.087367 -22.976671 L 375.38082 -22.976671 L 384.754924 14.353098 L 353.21627 14.353098 L 347.383493 -13.644229 L 291.347178 -13.644229 L 319.386167 -51.01566 L 300.67962 -51.01566 L 272.682293 -13.644229 L 235.310862 -13.644229 L 207.313536 -51.01566 Z M 188.648652 -51.01566 " transform="matrix(0.093759,0,0,0.093759,0,20.158175)"/>
<path style=" stroke:none;fill-rule:nonzero;fill:url(#linear3);" d="M 17.363281 20.71875 L 20.839844 20.71875 L 20.839844 24.191406 L 17.363281 24.191406 Z M 17.363281 20.71875 "/>
<path style=" stroke:none;fill-rule:nonzero;fill:rgb(100%,100%,100%);fill-opacity:1;" d="M 17.363281 20.71875 L 17.363281 21.460938 L 20.839844 21.460938 L 20.839844 20.71875 Z M 17.363281 20.71875 "/>
<path style=" stroke:none;fill-rule:nonzero;fill:rgb(0%,0%,0%);fill-opacity:0.235294;" d="M 17.363281 24.191406 L 17.363281 24.933594 L 20.839844 24.933594 L 20.839844 24.191406 Z M 17.363281 24.191406 "/>
<path style="fill:none;stroke-width:3;stroke-linecap:round;stroke-linejoin:round;stroke:rgb(12.941177%,12.941177%,12.941177%);stroke-opacity:1;stroke-miterlimit:4;" d="M 201.065646 5.978898 L 238.145438 5.978898 L 238.145438 43.017027 L 201.065646 43.017027 Z M 201.065646 5.978898 " transform="matrix(0.093759,0,0,0.093759,-1.488423,20.158175)"/>
<path style=" stroke:none;fill-rule:nonzero;fill:url(#linear4);" d="M 26.792969 20.71875 L 30.265625 20.71875 L 30.265625 24.191406 L 26.792969 24.191406 Z M 26.792969 20.71875 "/>
<path style=" stroke:none;fill-rule:nonzero;fill:rgb(100%,100%,100%);fill-opacity:1;" d="M 26.792969 20.71875 L 26.792969 21.460938 L 30.265625 21.460938 L 30.265625 20.71875 Z M 26.792969 20.71875 "/>
<path style=" stroke:none;fill-rule:nonzero;fill:rgb(0%,0%,0%);fill-opacity:0.235294;" d="M 26.792969 24.191406 L 26.792969 24.933594 L 30.265625 24.933594 L 30.265625 24.191406 Z M 26.792969 24.191406 "/>
<path style="fill:none;stroke-width:3;stroke-linecap:round;stroke-linejoin:round;stroke:rgb(12.941177%,12.941177%,12.941177%);stroke-opacity:1;stroke-miterlimit:4;" d="M 201.097713 5.978898 L 238.135843 5.978898 L 238.135843 43.017027 L 201.097713 43.017027 Z M 201.097713 5.978898 " transform="matrix(0.093759,0,0,0.093759,7.938258,20.158175)"/>
</g>
</svg>
